assets/Long drum/Flat/long_drum_flat.svg

<svg width="32" height="32" viewBox="0 0 32 32" fill="none" xmlns="http://www.w3.org/2000/svg">
<path d="M7 10.49V4L16.5 3L26 4V10.49C26 13.34 24.71 16.04 22.48 17.81L21 19L23.68 28.82C23.85 29.41 23.4 30 22.78 30H10.23C9.61002 30 9.16002 29.41 9.32002 28.82L12 19L10.52 17.81C8.29 16.03 7 13.34 7 10.49Z" fill="#E19747"/>
<path d="M15.2113 18.75H16V3H17V18.75H17.7888L19.79 16.4701C21.29 14.7601 22.12 12.5601 22.12 10.2801V2.06006H23.12V10.2801C23.12 12.8001 22.2 15.2401 20.54 17.1301L19.1181 18.75H21.25C21.66 18.75 22 19.09 22 19.5C22 19.91 21.66 20.25 21.25 20.25H11.75C11.34 20.25 11 19.91 11 19.5C11 19.09 11.34 18.75 11.75 18.75H13.882L12.46 17.1301C10.8 15.2301 9.88 12.8001 9.88 10.2801V2.06006H10.88V10.2801C10.88 12.5601 11.71 14.7601 13.21 16.4701L15.2113 18.75Z" fill="#433B6B"/>
<path d="M26 4H7C6.45 4 6 3.55 6 3C6 2.45 6.45 2 7 2H26C26.55 2 27 2.45 27 3C27 3.55 26.55 4 26 4Z" fill="#FFCE7C"/>
</svg>

<svg xmlns="http://www.w3.org/2000/svg" width="32" height="32" fill="none"><path fill="#E19747" d="M7 10.49V4l9.5-1L26 4v6.49a9.34 9.34 0 0 1-3.52 7.32L21 19l2.68 9.82a.93.93 0 0 1-.9 1.18H10.23a.94.94 0 0 1-.91-1.18L12 19l-1.48-1.19A9.355 9.355 0 0 1 7 10.49Z"/><path fill="#433B6B" d="M15.211 18.75H16V3h1v15.75h.789l2.001-2.28a9.388 9.388 0 0 0 2.33-6.19V2.06h1v8.22c0 2.52-.92 4.96-2.58 6.85l-1.422 1.62h2.132c.41 0 .75.34.75.75s-.34.75-.75.75h-9.5c-.41 0-.75-.34-.75-.75s.34-.75.75-.75h2.132l-1.422-1.62c-1.66-1.9-2.58-4.33-2.58-6.85V2.06h1v8.22c0 2.28.83 4.48 2.33 6.19l2.001 2.28Z"/><path fill="#FFCE7C" d="M26 4H7c-.55 0-1-.45-1-1s.45-1 1-1h19c.55 0 1 .45 1 1s-.45 1-1 1Z"/></svg>
